X:18813
T:Wimble's Reel
M:2/2
L:1/8
S:Armitt MS
K:C major
EG c2 EG c2|(d/2c/2B/2A/2) cE D/2D/2D D2|EG c2 EGc2|(d/2c/2B/2A/2) cE C/
2C/2C C2:||:egcg ecgc|fagf d/2d/2d dg|egcg ecge|(d/2c/2B/2A/2) cE C/2C/2
C C2:||


